src/lib/packages/icons/src/assets/line/lamp-desk.svg

<svg width="24" height="24" viewBox="0 0 24 24" fill="none" xmlns="http://www.w3.org/2000/svg">
<path d="M19.58 12C18.86 10.83 17.17 7.66 17.08 3.38C17.07 2.75 16.56 2.25 15.94 2.25H8.06999C7.43999 2.25 6.93999 2.74 6.92999 3.38C6.83999 7.66 5.14999 10.84 4.42999 12.01C4.20999 12.36 4.19999 12.81 4.40999 13.17C4.60999 13.53 4.99999 13.76 5.41999 13.76H11.27V20.26H9.51999C9.10999 20.26 8.76999 20.6 8.76999 21.01C8.76999 21.42 9.10999 21.76 9.51999 21.76H14.52C14.93 21.76 15.27 21.42 15.27 21.01C15.27 20.6 14.93 20.26 14.52 20.26H12.77V13.76H14.77V16.01C14.77 16.42 15.11 16.76 15.52 16.76C15.93 16.76 16.27 16.42 16.27 16.01V13.76H18.62C19.04 13.76 19.42 13.53 19.63 13.17C19.83 12.81 19.82 12.37 19.6 12.01L19.58 12ZM8.40999 3.75H15.58C15.67 5.88 16.12 7.74 16.64 9.25H7.34999C7.87999 7.74 8.32999 5.88 8.40999 3.75ZM6.00999 12.25C6.22999 11.85 6.48999 11.34 6.75999 10.75H17.24C17.5 11.34 17.76 11.85 17.99 12.25H6.00999Z" fill="currentColor"/>
</svg>

<svg xmlns="http://www.w3.org/2000/svg" width="24" height="24" fill="none"><path fill="currentColor" d="M19.58 12c-.72-1.17-2.41-4.34-2.5-8.62-.01-.63-.52-1.13-1.14-1.13H8.07c-.63 0-1.13.49-1.14 1.13-.09 4.28-1.78 7.46-2.5 8.63-.22.35-.23.8-.02 1.16.2.36.59.59 1.01.59h5.85v6.5H9.52c-.41 0-.75.34-.75.75s.34.75.75.75h5c.41 0 .75-.34.75-.75s-.34-.75-.75-.75h-1.75v-6.5h2v2.25c0 .41.34.75.75.75s.75-.34.75-.75v-2.25h2.35c.42 0 .8-.23 1.01-.59.2-.36.19-.8-.03-1.16l-.02-.01ZM8.41 3.75h7.17c.09 2.13.54 3.99 1.06 5.5H7.35c.53-1.51.98-3.37 1.06-5.5Zm-2.4 8.5c.22-.4.48-.91.75-1.5h10.48c.26.59.52 1.1.75 1.5H6.01Z"/></svg>
